X: 1
T: Elizabeth Clare
M: 3/4
L: 1/8
R: waltz
K: Fmaj
C FG|:A3 B AF|G2A2GF|F2D2C2|C3 C FG|
[1A2c2d2|c3 AF2|c2B2A2|G3 C FG:|
[2A2c2d2|c3 BA2|G2F2E2|F3 G Ac||
d2c3A|B2A3B|c2B2A2|G3 F GA|
B3 B cB|A3 A BA|G2F2D2|C3 C FG|
A3 B AF|G2A3G|F2D2C2|C3 C FG|
A2c2d2|c3 BA2|G2F2E2|F3||
